vivaldi-source/chromium/chrome/browser/resources/tab_search/alert_indicators/tab_audio_muting_rounded.svg

<svg width="16" height="16" viewBox="0 0 16 16" fill="none" xmlns="http://www.w3.org/2000/svg">
<path fill-rule="evenodd" clip-rule="evenodd" d="M2.84667 2L2 2.84667L5.15333 6H2V10H4.66667L8 13.3333V8.84667L10.8333 11.68C10.3867 12.0267 9.88667 12.3 9.33333 12.4667V13.84C10.2533 13.6333 11.0867 13.2067 11.7933 12.6333L13.1533 14L14 13.1533L8 7.15333L2.84667 2ZM12.3067 9.76C12.5333 9.21333 12.6667 8.62667 12.6667 8C12.6667 5.88667 11.26 4.1 9.33333 3.52667V2.15333C12.0067 2.76 14 5.14667 14 8C14 9 13.7533 9.94 13.3133 10.7667L12.3067 9.76ZM9.33333 5.31333C10.32 5.80667 11 6.82 11 8C11 8.14667 10.9867 8.28667 10.9667 8.42L9.33333 6.78667V5.31333ZM6.60667 4.06L8 2.66667V5.45333L6.60667 4.06Z" fill="black"/>
</svg>

<svg width="16" height="16" viewBox="0 0 16 16" fill="none" xmlns="http://www.w3.org/2000/svg"><path fill-rule="evenodd" clip-rule="evenodd" d="M2.847 2L2 2.847 5.153 6H2v4h2.667L8 13.333V8.847l2.833 2.833c-.446.347-.946.62-1.5.787v1.373a5.992 5.992 0 0 0 2.46-1.207L13.153 14l.847-.847-6-6L2.847 2zm9.46 7.76c.226-.547.36-1.133.36-1.76a4.67 4.67 0 0 0-3.334-4.473V2.153A5.998 5.998 0 0 1 14 8c0 1-.247 1.94-.687 2.767L12.307 9.76zM9.333 5.313A3 3 0 0 1 11 8c0 .147-.013.287-.033.42L9.333 6.787V5.313zM6.607 4.06L8 2.667v2.786L6.607 4.06z" fill="#000"/></svg>
